flaticon/constructions/vise-1.svg

<svg xmlns="http://www.w3.org/2000/svg" width="32" height="32" viewBox="0 0 24 24">
    <path d="M 18.199219 4 L 10.601562 4 L 10.601562 3.199219 C 10.839844 3.199219 11 3.039062 11 2.800781 L 11 2 L 16.640625 2 C 16.640625 2.441406 17 2.800781 17.441406 2.800781 L 18.199219 2.800781 C 18.640625 2.800781 19 2.441406 19 2 L 19 1.199219 C 19 0.761719 18.640625 0.398438 18.199219 0.398438 L 17.441406 0.398438 C 17 0.398438 16.640625 0.761719 16.640625 1.199219 L 11 1.199219 L 11 0.398438 C 11 0.160156 10.839844 0 10.601562 0 L 8.199219 0 C 7.960938 0 7.800781 0.160156 7.800781 0.398438 L 7.800781 1.199219 L 6.199219 1.199219 C 6.199219 0.761719 5.839844 0.398438 5.398438 0.398438 L 4.640625 0.398438 C 4.199219 0.398438 3.839844 0.761719 3.839844 1.199219 L 3.839844 2 C 3.839844 2.441406 4.199219 2.800781 4.640625 2.800781 L 5.398438 2.800781 C 5.839844 2.800781 6.199219 2.441406 6.199219 2 L 7.800781 2 L 7.800781 2.800781 C 7.800781 3.039062 8 3.199219 8.199219 3.199219 L 8.199219 4 L 5.398438 4 C 4.519531 4 3.800781 4.71875 3.800781 5.601562 C 3.800781 6.480469 4.519531 7.199219 5.398438 7.199219 L 8.199219 7.199219 L 8.199219 7.644531 L 7.839844 7.601562 C 7.640625 7.601562 7.441406 7.761719 7.398438 7.960938 C 7.398438 8.160156 7.519531 8.359375 7.761719 8.398438 L 8.199219 8.453125 L 8.199219 9.199219 L 7.398438 9.199219 C 7.160156 9.199219 7 9.359375 7 9.601562 L 7 11.199219 C 7 11.441406 7.160156 11.601562 7.398438 11.601562 L 11.398438 11.601562 C 11.640625 11.601562 11.800781 11.441406 11.800781 11.199219 L 11.800781 9.601562 C 11.800781 9.359375 11.640625 9.199219 11.398438 9.199219 L 10.601562 9.199219 L 10.601562 8.753906 L 10.960938 8.800781 L 11 8.800781 C 11.199219 8.800781 11.359375 8.640625 11.398438 8.441406 C 11.398438 8.238281 11.238281 8.039062 11.039062 8 L 10.601562 7.945312 L 10.601562 7.199219 L 15 7.199219 C 15.238281 7.199219 15.398438 7.359375 15.398438 7.601562 L 15.398438 16.398438 C 15.398438 16.640625 15.238281 16.800781 15 16.800781 L 10.601562 16.800781 L 10.601562 16.355469 L 10.960938 16.398438 L 11 16.398438 C 11.199219 16.398438 11.359375 16.238281 11.398438 16.039062 C 11.398438 15.839844 11.238281 15.640625 11.039062 15.601562 L 10.601562 15.546875 L 10.601562 14.800781 L 11.398438 14.800781 C 11.640625 14.800781 11.800781 14.640625 11.800781 14.398438 L 11.800781 12.800781 C 11.800781 12.558594 11.640625 12.398438 11.398438 12.398438 L 7.398438 12.398438 C 7.160156 12.398438 7 12.558594 7 12.800781 L 7 14.398438 C 7 14.640625 7.160156 14.800781 7.398438 14.800781 L 8.199219 14.800781 L 8.199219 15.246094 L 7.839844 15.199219 C 7.640625 15.199219 7.441406 15.359375 7.398438 15.558594 C 7.398438 15.761719 7.519531 15.960938 7.761719 16 L 8.199219 16.054688 L 8.199219 16.800781 L 5.398438 16.800781 C 4.519531 16.800781 3.800781 17.519531 3.800781 18.398438 C 3.800781 19.28125 4.519531 20 5.398438 20 L 8.199219 20 L 8.199219 20.800781 C 7.960938 20.800781 7.800781 20.960938 7.800781 21.199219 L 7.800781 22 L 6.199219 22 C 6.199219 21.558594 5.839844 21.199219 5.398438 21.199219 L 4.640625 21.199219 C 4.199219 21.199219 3.839844 21.558594 3.839844 22 L 3.839844 22.800781 C 3.839844 23.238281 4.199219 23.601562 4.640625 23.601562 L 5.398438 23.601562 C 5.839844 23.601562 6.199219 23.238281 6.199219 22.800781 L 7.800781 22.800781 L 7.800781 23.601562 C 7.800781 23.839844 7.960938 24 8.199219 24 L 10.601562 24 C 10.839844 24 11 23.839844 11 23.601562 L 11 22.800781 L 16.640625 22.800781 C 16.640625 23.238281 17 23.601562 17.441406 23.601562 L 18.199219 23.601562 C 18.640625 23.601562 19 23.238281 19 22.800781 L 19 22 C 19 21.558594 18.640625 21.199219 18.199219 21.199219 L 17.441406 21.199219 C 17 21.199219 16.640625 21.558594 16.640625 22 L 11 22 L 11 21.199219 C 11 20.960938 10.839844 20.800781 10.601562 20.800781 L 10.601562 20 L 18.199219 20 C 19.320312 20 20.199219 19.121094 20.199219 18 L 20.199219 6 C 20.199219 4.878906 19.320312 4 18.199219 4 Z M 17.441406 1.199219 L 18.238281 1.199219 L 18.238281 2 L 17.441406 2 Z M 4.640625 2 L 4.640625 1.199219 L 5.441406 1.199219 L 5.441406 1.410156 C 5.414062 1.464844 5.398438 1.527344 5.398438 1.601562 C 5.398438 1.664062 5.414062 1.722656 5.441406 1.773438 L 5.441406 2 Z M 4.640625 22.800781 L 4.640625 22 L 5.441406 22 L 5.441406 22.210938 C 5.414062 22.265625 5.398438 22.328125 5.398438 22.398438 C 5.398438 22.472656 5.414062 22.535156 5.441406 22.589844 L 5.441406 22.800781 Z M 17.441406 22 L 18.238281 22 L 18.238281 22.800781 L 17.441406 22.800781 Z M 8.601562 0.800781 L 10.199219 0.800781 L 10.199219 2.398438 L 8.601562 2.398438 Z M 9 3.199219 L 9.800781 3.199219 L 9.800781 4 L 9 4 Z M 11 10.800781 L 7.800781 10.800781 L 7.800781 10 L 11 10 Z M 9.800781 9.199219 L 9 9.199219 L 9 8.554688 L 9.800781 8.65625 Z M 9.800781 7.84375 L 9 7.746094 L 9 7.199219 L 9.800781 7.199219 Z M 7.800781 13.199219 L 11 13.199219 L 11 14 L 7.800781 14 Z M 9 14.800781 L 9.800781 14.800781 L 9.800781 15.445312 L 9 15.34375 Z M 9 16.15625 L 9.800781 16.253906 L 9.800781 16.800781 L 9 16.800781 Z M 10.199219 23.199219 L 8.601562 23.199219 L 8.601562 21.601562 L 10.199219 21.601562 Z M 9.800781 20.800781 L 9 20.800781 L 9 20 L 9.800781 20 Z M 18.199219 19.199219 L 5.398438 19.199219 C 4.960938 19.199219 4.601562 18.839844 4.601562 18.398438 C 4.601562 17.960938 4.960938 17.601562 5.398438 17.601562 L 15 17.601562 C 15.679688 17.601562 16.199219 17.078125 16.199219 16.398438 L 16.199219 7.601562 C 16.199219 6.921875 15.679688 6.398438 15 6.398438 L 5.398438 6.398438 C 4.960938 6.398438 4.601562 6.039062 4.601562 5.601562 C 4.601562 5.160156 4.960938 4.800781 5.398438 4.800781 L 18.199219 4.800781 C 18.878906 4.800781 19.398438 5.320312 19.398438 6 L 19.398438 15.199219 L 18.601562 15.199219 C 18.359375 15.199219 18.199219 15.359375 18.199219 15.601562 C 18.199219 15.839844 18.359375 16 18.601562 16 L 19.398438 16 L 19.398438 16.800781 L 17.800781 16.800781 C 17.558594 16.800781 17.398438 16.960938 17.398438 17.199219 C 17.398438 17.441406 17.558594 17.601562 17.800781 17.601562 L 19.398438 17.601562 L 19.398438 18 C 19.398438 18.679688 18.878906 19.199219 18.199219 19.199219 Z M 18.199219 19.199219"/>
</svg>

<svg xmlns="http://www.w3.org/2000/svg" width="32" height="32" viewBox="0 0 24 24">
    <path d="M18.2 4h-7.598v-.8c.238 0 .398-.16.398-.4V2h5.64c0 .441.36.8.801.8h.758c.442 0 .801-.359.801-.8v-.8c0-.438-.36-.802-.8-.802h-.759c-.441 0-.8.364-.8.801H11V.4C11 .16 10.84 0 10.602 0H8.199c-.238 0-.398.16-.398.398V1.2H6.199c0-.437-.36-.8-.8-.8H4.64c-.442 0-.801.363-.801.8V2c0 .441.36.8.8.8h.758c.442 0 .801-.359.801-.8h1.602v.8a.4.4 0 0 0 .398.4V4H5.4C4.518 4 3.8 4.719 3.8 5.602c0 .878.719 1.597 1.597 1.597H8.2v.446l-.36-.043c-.198 0-.398.16-.44.359 0 .2.12.398.363.437l.437.055V9.2h-.8C7.16 9.2 7 9.36 7 9.602v1.597c0 .242.16.403.398.403h4c.243 0 .403-.16.403-.403V9.602c0-.243-.16-.403-.403-.403h-.796v-.445l.359.047H11c.2 0 .36-.16.398-.36A.467.467 0 0 0 11.04 8l-.437-.055V7.2H15c.238 0 .398.16.398.403v8.796c0 .243-.16.403-.398.403h-4.398v-.446l.359.043H11c.2 0 .36-.16.398-.359 0-.2-.16-.398-.359-.437l-.437-.055V14.8h.796c.243 0 .403-.16.403-.403v-1.597c0-.242-.16-.403-.403-.403h-4c-.238 0-.398.16-.398.403v1.597c0 .243.16.403.398.403H8.2v.445l-.36-.047c-.198 0-.398.16-.44.36 0 .203.12.402.363.441l.437.055v.746H5.4c-.88 0-1.598.719-1.598 1.597C3.8 19.281 4.52 20 5.398 20H8.2v.8c-.238 0-.398.16-.398.4v.8H6.199c0-.441-.36-.8-.8-.8H4.64c-.442 0-.801.359-.801.8v.8c0 .438.36.802.8.802h.758c.442 0 .801-.364.801-.801h1.602v.8c0 .239.16.399.398.399h2.403c.238 0 .398-.16.398-.398V22.8h5.64c0 .437.36.8.801.8h.758c.442 0 .801-.363.801-.8V22c0-.441-.36-.8-.8-.8h-.759c-.441 0-.8.359-.8.8H11v-.8c0-.24-.16-.4-.398-.4V20h7.597c1.121 0 2-.879 2-2V6c0-1.121-.879-2-2-2zm-.759-2.8h.797V2h-.797zm-12.8.8v-.8h.8v.21a.42.42 0 0 0-.043.192c0 .062.016.12.043.171V2zm0 20.8V22h.8v.21a.414.414 0 0 0-.043.188.42.42 0 0 0 .043.192v.21zm12.8-.8h.797v.8h-.797zM8.601.8H10.2v1.598H8.602zM9 3.2h.8V4H9zm2 7.6H7.8V10H11zM9.8 9.2H9v-.645l.8.101zm0-1.356L9 7.746V7.2h.8zm-2 5.355H11V14H7.8zM9 14.801h.8v.644l-.8-.101zm0 1.355l.8.098v.547H9zm1.2 7.043H8.601v-1.597h1.597zm-.4-2.398H9V20h.8zm8.4-1.602H5.397a.801.801 0 0 1-.796-.8.8.8 0 0 1 .796-.797H15c.68 0 1.2-.524 1.2-1.204V7.602c0-.68-.52-1.204-1.2-1.204H5.398a.8.8 0 0 1-.796-.796c0-.442.359-.801.796-.801H18.2c.68 0 1.2.52 1.2 1.199v9.2h-.797c-.243 0-.403.16-.403.402 0 .238.16.398.403.398h.796v.8h-1.597c-.242 0-.403.16-.403.4 0 .241.16.402.403.402h1.597V18c0 .68-.52 1.2-1.199 1.2zm0 0"/>
</svg>
